X: 14
T:Carballesa de Morrazo
M:6/8
L:1/8
Q:200
C:E. Otero
R:Carballesa
B:Leccións de Gaita. OTERO COVELO
K:C
Z>cB |: A>GA G>FA | G>EC- C>EG | F>DF A>GF |
G>EC- C>cB | A>GA G>FA | G>EC- C>EG | F>DF A>GE |
C3- C>cB :| |: A>GA- A>cB | G>FG- G>cB | A>GF E2F |
A2 G- G>cB | A>GA- A>cB | G>FG- G>cB |
A>GF E>FD |1 C3- C>cB :|2 C3-C2 G |: G2E F2D | E3- E2 G|
G>FG A2G| cGE- E2G | G2E F2D | E3- E2 G|
G>FG A2G |1 c3-c2 G :|2 C3 ||

